icon-themes/breeze_svg/cmd/sc_actionmode.svg

<svg viewBox="0 0 16 16" xmlns="http://www.w3.org/2000/svg"><path d="m8 2-2 4-4 1 3 3-1 4 3.125-1.5625.875-.84375.28125-.28125 4-4 .5625-.59375-2.84375-.71875zm5 6-1 1-1 1-2 2v1 1h2l.59375-.59375.40625-.40625 1-1 1-1 1-1zm-.3125 1.6875.59375.59375-.28125.28125-1.40625 1.40625v.03125l-1.28125 1.28125-.59375-.59375 1.875-1.90625z" fill="#4d4d4d"/></svg>

<svg xmlns="http://www.w3.org/2000/svg" viewBox="0 0 16 16">
 <path 
     style="fill:#4d4d4d" 
     d="M 8 2 L 6 6 L 2 7 L 5 10 L 4 14 L 7.125 12.4375 L 8 11.59375 L 8.28125 11.3125 L 12.28125 7.3125 L 12.84375 6.71875 L 10 6 L 8 2 z M 13 8 L 12 9 L 11 10 L 9 12 L 9 13 L 9 14 L 11 14 L 11.59375 13.40625 L 12 13 L 13 12 L 14 11 L 15 10 L 13 8 z M 12.6875 9.6875 L 13.28125 10.28125 L 13 10.5625 L 11.59375 11.96875 L 11.59375 12 L 10.3125 13.28125 L 9.71875 12.6875 L 11.59375 10.78125 L 12.6875 9.6875 z "
     />
 </svg>
